packages/kaspersky-hexa-ui-icons/src/iconsSVGs/16/LocationSolid.svg

<svg width="16" height="16" viewBox="0 0 16 16" fill="none" xmlns="http://www.w3.org/2000/svg">
<path fill-rule="evenodd" clip-rule="evenodd" d="M8.36907 14.8352C8.1472 14.9882 7.8531 14.9881 7.63116 14.8352C7.3282 14.6264 7.05173 14.3681 6.77658 14.1248C6.28694 13.6918 5.63243 13.0729 4.97591 12.3308C3.69476 10.8826 2.27539 8.82138 2.27539 6.69057C2.27539 3.56519 4.84872 1.05005 8.0001 1.05005C11.1515 1.05005 13.7248 3.56519 13.7248 6.69057C13.7248 8.82138 12.3054 10.8826 11.0243 12.3308C10.3678 13.0729 9.71325 13.6918 9.22361 14.1248C8.97834 14.3417 8.77328 14.513 8.6285 14.6308C8.54309 14.7004 8.45899 14.7731 8.36907 14.8352ZM9.38137 6.63201C9.38137 7.38219 8.76297 7.99033 8.00013 7.99033C7.2373 7.99033 6.6189 7.38219 6.6189 6.63201C6.6189 5.88182 7.2373 5.27368 8.00013 5.27368C8.76297 5.27368 9.38137 5.88182 9.38137 6.63201Z" fill="black"/>
</svg>

<svg xmlns="http://www.w3.org/2000/svg" width="16" height="16" fill="none" viewBox="0 0 16 16"><path fill="#000" fill-rule="evenodd" d="M8.369 14.8352a.651.651 0 0 1-.7378 0c-.303-.2088-.5795-.4671-.8546-.7104-.4897-.433-1.1442-1.0519-1.8007-1.794-1.2811-1.4482-2.7005-3.5094-2.7005-5.6402C2.2754 3.5652 4.8487 1.05 8 1.05s5.7247 2.515 5.7247 5.6405c0 2.1308-1.4194 4.192-2.7005 5.6402-.6565.7421-1.311 1.361-1.8007 1.794a19 19 0 0 1-.5951.506c-.0854.0696-.1695.1423-.2594.2044M9.3815 6.632c0 .7502-.6184 1.3583-1.3813 1.3583S6.619 7.3822 6.619 6.632s.6184-1.3583 1.3812-1.3583 1.3813.6081 1.3813 1.3583"/></svg>
